X: 1
T: Piiripolkka
O: Trad Finland
Z: 2002 John Chambers <jc:trillian.mit.edu>
M: 2/4
L: 1/16
%Q: 1/4=112
% - - - - - - - - - - - - - - - - - - - - - - - - -
P: Piiripolkka   [G]
K: G
|: "G"G2G2 GAB2 | G2G2 GAB2 | "D7"A4 F2EF |1,3 "G"G2E2 "(D7)"D4 :|2,4 "G"G2G2 G4 :|
|: "G"{B}d2B2 d2B2 | "(Em)"G2G2 G4 | "C(Am)"{c}e2c2 e2c2 | "D7"A2A2 A4 |
|  "G"{B}d2B2 d2B2 | "Em"G2G2 G4 | "D7"A2F2   D2EF |  "G"G2G2 G4 :|
% - - - - - - - - - - - - - - - - - - - - - - - - -
P: Piiripolkka   [D]
K: D
|: "D"d2d2 def2 | d2d2 def2 | "A7"e4 c2Bc |1,3 "D"d2B2 "(A7)"A4 :|2,4 "D"d2d2 d4 :|
|: "D"{f}a2f2 a2f2 | "(Bm)"d2d2 d4 | "G(Em)"{g}b2g2 b2g2 | "A7"e2e2 e4 |
|  "D"{f}a2f2 a2f2 | "Bm"d2d2 d4 | "A7"e2c2   A2Bc |  "D"d2d2 d4 :|

%%sep 1 1 500

